!!!COM: Palestrina, Giovanni Perluigi da
!!!OPR: Missa Ecce ego Joannes
!!!OMD: Kyrie
!!!OTL: Christe
**kern	**kern	**kern	**kern
*Itenor	*Icalto	*Icant	*Icant
!Tenor	!Altus	!Cantus 2	!Cantus 1
*clefGv2	*clefG2	*clefG2	*clefG2
*k[]	*k[]	*k[]	*k[]
*G:mix	*G:mix	*G:mix	*G:mix
*M4/2	*M4/2	*M4/2	*M4/2
=35	=35	=35	=35
0r	1r	0r	0dd
.	1d	.	.
=36	=36	=36	=36
0r	1e	0r	1cc
.	1f#	.	1a
=37	=37	=37	=37
0r	2.g	0r	2.b
.	4e	.	4cc
.	4f	.	4dd
.	4g	.	4ee
.	[2a	.	2cc
=38	=38	=38	=38
1r	4a]	0dd	2.b
.	4g	.	.
.	1g	.	.
.	.	.	8a
.	.	.	8g
1d	.	.	1a
.	2f#	.	.
=39	=39	=39	=39
1e	2g	1cc	1g
.	2c	.	.
1f#	1d	1a	1r
=40	=40	=40	=40
2.g	1G	2.b	0r
4e	.	4cc	.
4f	1r	4dd	.
4g	.	4ee	.
[2a	.	2cc	.
=41	=41	=41	=41
4a]	1r	2.b	0dd
4g	.	.	.
1g	.	.	.
.	.	8a	.
.	.	8g	.
.	1d	1a	.
2f#	.	.	.
=42	=42	=42	=42
2g	1e	1g	1cc
2c	.	.	.
1d	1f#	2r	1a
.	.	[2dd	.
=43	=43	=43	=43
1G	2.g	2dd]	2.b
.	.	2g	.
.	4e	.	4cc
2r	4f	1a	4dd
.	4g	.	4ee
2A	[2a	.	2cc
=44	=44	=44	=44
2e	4a]	2b	2b
.	4g	.	.
2e	1g	2cc	4a
.	.	.	4g
2d	.	[1dd	1a
2d	2f#	.	.
=45	=45	=45	=45
1G	1g	1dd]	2.b
.	.	.	4cc
2r	2r	2r	[1dd
2G	2g	2b	.
=46	=46	=46	=46
2G	2g	2b	0dd]
2d	2f#	2a	.
4G	1g	1b	.
4A	.	.	.
4B	.	.	.
4c	.	.	.
=47	=47	=47	=47
2d	2f	2a	0r
2A	4e	2.cc	.
.	4d	.	.
2c	2e	.	.
.	.	4b	.
2d	2f	[2a	.
=48	=48	=48	=48
1B-	1d	2a]	2r
.	.	2g	2dd
1A	1e	[1a	2dd
.	.	.	2cc#
=49	=49	=49	=49
2r	2d	1a]	1dd
2d	2f	.	.
2d	2f	1r	1a
2c#	2e	.	.
=50	=50	=50	=50
4d	4f	2r	2r
4e	4e	.	.
4f	4d	2dd	2ff
4g	4e	.	.
1a	4f	2dd	2ff
.	4g	.	.
.	2a	2cc#	2ee
=51	=51	=51	=51
1a	4d	1dd	1ff
.	4e	.	.
.	4f	.	.
.	4g	.	.
1r	2a	2cc	2ee
.	2e	4b	[2gg
.	.	4a	.
=52	=52	=52	=52
1r	2g	2b	4gg]
.	.	.	4ff
.	2a	2cc	1ee
2r	1f	1a	.
2a	.	.	2dd
=53	=53	=53	=53
2a	1e	1b	1.ee
2g#	.	.	.
1a	1r	1cc	.
.	.	.	2ff
=54	=54	=54	=54
2g	0r	2b	2ee
4f#	.	4a	4dd
4e	.	4g	4cc
2f#	.	2a	4dd
.	.	.	4cc
2g	.	[2dd	4b
.	.	.	4a
=55	=55	=55	=55
1e	2r	2dd]	1g
.	2g	2cc	.
1d	2g	1dd	1a
.	2f#	.	.
=56	=56	=56	=56
1e	1g	2cc	0r
.	.	4b	.
.	.	4a	.
2d	2f	2b	.
4c	4e	[2cc	.
4B	4d	.	.
=57	=57	=57	=57
1A	2e	4cc]	1r
.	.	4b	.
.	2f	1a	.
1B-	1d	.	2r
.	.	2g	2dd
=58	=58	=58	=58
1A	1e	0a	2dd
.	.	.	2cc#
1d	4f	.	1dd
.	4g	.	.
.	4a	.	.
.	4f	.	.
=59	=59	=59	=59
2e	2g	2r	2cc
2f	2.a	2dd	4b
.	.	.	4a
2g	.	2dd	2b
.	4g	.	.
2e	[2g	2cc#	2g
=60	=60	=60	=60
1d	2g]	2dd	1a
.	2f#	2dd	.
2r	[1g	2b	2g
2c	.	2ee	2cc
=61	=61	=61	=61
2c	0g]	2ee	2cc
2g	.	2dd	2b
2c	.	2ee	2cc
2c	.	2ee	2cc
=62	=62	=62	=62
2g	2r	2dd	2.b
2G	2g	2b	.
.	.	.	4cc
2G	2g	2b	[1dd
2d	2f#	2a	.
=63	=63	=63	=63
4G	1g	2b	1dd]
4A	.	.	.
4B	.	2b	.
4c	.	.	.
2d	2f	2a	2r
2A	[2a	[2cc	2ee
=64	=64	=64	=64
2c	4a]	4cc]	2ee
.	4g	4b	.
2d	4f	1a	1ff
.	4e	.	.
1B-	1d	.	.
.	.	2g	4ee
.	.	.	4dd
=65	=65	=65	=65
1A	1e	0a	1cc#
1d	1f#	.	[1dd
=66	=66	=66	=66
0G	0g	2b	2dd]
.	.	2cc	2cc
.	.	1dd	1b
=67	=67	=67	=67
0d	0f#	0dd	0a
==	==	==	==
*-	*-	*-	*-
!!!CDT: 1525/^1526/-1594/2/2
!!!OCY: Italia
!!!AGN: Mass (Parody)
!!!AST: renaissance, vocal
!!!ASW: Motet (Unidentified)
!!!PWK: Masses, Book 12
!!!RNB: Cadence finals: D
!!!YOR: Le Opere Complete, v. 29, p. 197
!!!YOO: Rome, Italy: Fratelli Scalera
!!!END: 1992//
!!!EED: John Miller
!!!YEC: Copyright 2000, John Miller
!!!YEN: United States of America
!!!YEM: Rights to all derivative electronic formats reserved.
!!!YEM: Refer to licensing agreement for further details.
!!!YEM: This file must be accompanied by the licensing agreement.
!!!YEM: A copy of the licensing agreement may be found at http://www.music-cog.ohio-state.edu/HumdrumDatabases/Palestrina/license.txt
!!!EMD: converted to Humdrum by Bret Aarden
